symbolic/64x64/apps/maya.svg

<svg xmlns="http://www.w3.org/2000/svg" width="64" height="64" version="1">
 <path style="opacity:0.2" d="M 60,7.9999934 C 57.93895,27.059172 53.32344,43.74029 47.699668,59.998906 H 59.9991 Z M 47.699668,59.998906 C 47.564208,43.540392 45.027026,34.235146 43.999988,30.36895 v 26.797756 z"/>
 <path style="opacity:0.2" d="M 17.223671,30.821682 4.0002808,59.99848 c 4.6228148,-0.15826 8.8426612,0.793704 14.7369442,-2.921434 z"/>
 <path style="fill:#197279" d="M 43.519788,29.36865 60,6.9999998 57.56012,44.429704 47.700212,58.91936 C 45.83088,42.680238 44.494126,33.241512 43.519788,29.36865 Z"/>
 <path style="fill:#197279" d="M 17.223671,29.821688 4.0002808,58.998486 c 4.6228148,-0.15826 8.8426612,0.793704 14.7369442,-2.921434 z"/>
 <path style="fill:#029a9b" d="M 60,6.9999998 C 57.93895,26.059178 53.32344,42.740296 47.699668,58.998912 H 59.9991 Z M 47.699668,58.998912 c -0.13546,-16.458514 -2.672642,-25.76376 -3.69968,-29.629956 v 26.797756 z"/>
 <path style="opacity:0.2;fill:#ffffff" d="M 60 7 C 57.93895 26.059178 53.322991 42.739431 47.699219 58.998047 L 48.037109 58.998047 C 53.50472 43.054449 57.981133 26.671052 60 8.0019531 L 60 7 z M 47.699219 58.998047 C 47.563759 42.539533 45.027038 33.235337 44 29.369141 L 44 30.369141 C 45.005321 34.153586 47.451336 43.169241 47.681641 58.984375 L 47.699219 58.998047 z"/>
 <path style="opacity:0.2" d="M 4,7.6385506 H 15.891167 L 18.570868,29.382664 4,60 Z"/>
 <path style="fill:#029a9b" d="M 4,6.6378868 H 15.891167 L 18.570868,28.382 4,58.999336 Z"/>
 <path style="opacity:0.2" d="M 20.996094,5.9999996 4,7.6367184 26.183594,48 h 11.71875 L 60,7.9999996 H 43.003906 L 32.171876,33.761718 Z"/>
 <path style="fill:#28c4c6" d="M 60,6.9999998 H 43.004 L 26.183652,47 H 37.90163 Z"/>
 <path style="opacity:0.2;fill:#ffffff" d="M 43.003906 7 L 26.183594 47 L 26.603516 47 L 43.003906 8 L 59.447266 8 L 60 7 L 43.003906 7 z"/>
 <path style="fill:#92dbdc" d="M 4,6.6378868 20.99554,5.0000036 37.90163,47 H 26.183652 Z"/>
 <path style="opacity:0.2;fill:#ffffff" d="M 20.996094 5 L 4 6.6367188 L 4.5214844 7.5859375 L 20.996094 6 L 37.5 47 L 37.902344 47 L 20.996094 5 z"/>
</svg>

<svg xmlns="http://www.w3.org/2000/svg" width="64" height="64" version="1"><path style="opacity:.2" d="M60 8c-2.061 19.06-6.677 35.74-12.3 51.999H60zM47.7 59.999c-.136-16.459-2.673-25.764-3.7-29.63v26.798zM17.224 30.822 4 59.998c4.623-.158 8.843.794 14.737-2.921z"/><path style="fill:#197279" d="M43.52 29.369 60 7l-2.44 37.43-9.86 14.49c-1.87-16.24-3.206-25.678-4.18-29.551zM17.224 29.822 4 58.998c4.623-.158 8.843.794 14.737-2.92z"/><path style="fill:#029a9b" d="M60 7c-2.061 19.06-6.677 35.74-12.3 51.999H60zM47.7 58.999c-.136-16.459-2.673-25.764-3.7-29.63v26.798z"/><path style="opacity:.2;fill:#fff" d="M60 7c-2.061 19.06-6.677 35.74-12.3 51.998h.337C53.505 43.054 57.981 26.671 60 8.002V7zM47.7 58.998c-.136-16.458-2.673-25.763-3.7-29.629v1c1.005 3.785 3.451 12.8 3.682 28.615l.017.014z"/><path style="opacity:.2" d="M4 7.639h11.891l2.68 21.744L4 60z"/><path style="fill:#029a9b" d="M4 6.638h11.891l2.68 21.744L4 58.999z"/><path style="opacity:.2" d="M20.996 6 4 7.637 26.184 48h11.718L60 8H43.004L32.172 33.762z"/><path style="fill:#28c4c6" d="M60 7H43.004l-16.82 40h11.718z"/><path style="opacity:.2;fill:#fff" d="m43.004 7-16.82 40h.42l16.4-39h16.443L60 7H43.004z"/><path style="fill:#92dbdc" d="M4 6.638 20.996 5l16.906 42H26.184z"/><path style="opacity:.2;fill:#fff" d="M20.996 5 4 6.637l.521.949L20.996 6 37.5 47h.402L20.996 5z"/></svg>
